X:2420
L:1/8
Q:1/4=100
M:2/4
K:G
 d2 (c/d/e) | dGFG | cBAG | A2 D2 | d2 (c/d/e) | dgfe | f2 e2 | d4 :: (e/d/c) ce | dBAG | 
 (A/B/c) cB | AFED | GDGB | AGAc | B2 A2 | G4 |]

